X:1
T:Lasse Lyby
C:Lasse Lyby
R:Vals
Z:Patrik Mnsson, 4/7 2008
O:Skne
M:3/4
L:1/8
K:D
Q:1/4=120
|:DF Ad cB|BA AA A2|Ac eg fe|f2 d2 A2|DF Ad cB|BA AA A2|Ac eg fe|d2 z4:|
|:f2 fe dc|B2 B^A B2|g2 ge cA|d2 fd A2|f2 fe dc|B2 B^A B2|ge cA Bc|d2 z4:|
